X:94
T:London Hornpipe. JGi.094
T:Liverpool Hornpipe,aka. JGi.094
O:Tealby,Lincolnshire
M:C|
L:1/8
Q:1/2=90
S:Joshua Gibbons MS,1823,Tealby,Lincs.
R:.hornpipe
Z:VMP/R.Greig, 2009
K:D
A2|FDFA dfad|gefd dcBA|GBGB FAFA|EFGA GFED|
FDFA dfaf|gefd dcBA|f2fg afdf|geced2:|
|:A2|defd cdec|BcdB BAGF|GBGB FAFA|EFGA GFED|
FDFA dfaf|gefd dcBA|f2fg afdf|geced2:|

